X:26
T:Cepta Byrne's
Z:robin.beech@mcgill.ca
Z:Enda Scahill: Pick it Up
R:slip jig
M:9/8
L:1/8
K:Dmix
|: dBB dBc BAG | E2A cAB cde | dBB dBc BAG | A2B BAG FED ::
EBB EBB B^cd | e2A a2g fed | g2d B2d Bcd | e2E A2G FED :|
